icon-themes/breeze_svg/cmd/32/textdirectionlefttoright.svg

<svg viewBox="0 0 32 32" xmlns="http://www.w3.org/2000/svg"><path d="m8.3828125 4-4.3828125 11h1.3574219l1.1894531-3h4.927734l1.152344 3h1.373047l-4.2519531-11zm16.6171875 0v6l3-3zm-12 1v1h11v-1zm-3.9375.328125c.11316.37608.711475 2.0819644 1.796875 5.115234l.224609.556641h-4.1425778zm4.9375 2.671875v1h10v-1zm1 3v1h9v-1zm10 2v6l3-3zm-9 1v1h8v-1zm-12 3v1h20v-1zm0 3v1h20v-1zm21 2v6l3-3zm-21 1v1h20v-1zm0 3v1h20v-1z" fill="#4d4d4d"/></svg>

<svg xmlns="http://www.w3.org/2000/svg" viewBox="0 0 32 32">
 <path 
     style="fill:#4d4d4d" 
     d="M 8.3828125 4 L 4 15 L 5.3574219 15 L 6.546875 12 L 11.474609 12 L 12.626953 15 L 14 15 L 9.7480469 4 L 8.3828125 4 z M 25 4 L 25 10 L 28 7 L 25 4 z M 13 5 L 13 6 L 24 6 L 24 5 L 13 5 z M 9.0625 5.328125 C 9.17566 5.704205 9.773975 7.4100894 10.859375 10.443359 L 11.083984 11 L 6.9414062 11 L 9.0625 5.328125 z M 14 8 L 14 9 L 24 9 L 24 8 L 14 8 z M 15 11 L 15 12 L 24 12 L 24 11 L 15 11 z M 25 13 L 25 19 L 28 16 L 25 13 z M 16 14 L 16 15 L 24 15 L 24 14 L 16 14 z M 4 17 L 4 18 L 24 18 L 24 17 L 4 17 z M 4 20 L 4 21 L 24 21 L 24 20 L 4 20 z M 25 22 L 25 28 L 28 25 L 25 22 z M 4 23 L 4 24 L 24 24 L 24 23 L 4 23 z M 4 26 L 4 27 L 24 27 L 24 26 L 4 26 z "
     />
</svg>
